// "Clapping Music (Steve Reich)" @by Prince Lucija

setcpm(220)

$: s(`<  [cp cp cp ~ cp cp ~ cp ~ cp cp ~]@6 >`)

    .gain(rand.range(.6,.9))
    .pan(.2)


$: s(`< [[cp cp cp ~ cp cp ~ cp ~ cp cp ~]!7 ]@42
         [cp cp cp ~ cp cp ~ cp ~ cp cp  ]@5.5 >`)

    .bank("RolandMC303")
    .gain(rand.range(.6,.9))
    .pan(.8)
